assets/icons/projects/1.svg

<svg width="95" height="96" viewBox="0 0 95 96" fill="none" xmlns="http://www.w3.org/2000/svg">
<g id="data-collection_2103533 1">
<path id="Vector" d="M40.0352 18.6914H54.7227V21.6602H40.0352V18.6914Z" fill="#FCDAD8"/>
<path id="Vector_2" d="M40.0352 24.6289H54.7227V27.5977H40.0352V24.6289Z" fill="#FCDAD8"/>
<path id="Vector_3" d="M84.0977 81.0352V69.1602C84.0977 68.5011 83.6673 67.9207 83.0402 67.7352L48.8477 57.6562V39.4727H59.1289C59.9411 39.4727 60.5977 38.8077 60.5977 37.9883V14.2383C60.5977 13.8449 60.4434 13.4664 60.1673 13.1888L51.3548 4.28258C51.0802 4.00352 50.7071 3.84766 50.3164 3.84766H35.6289C34.8167 3.84766 34.1602 4.51266 34.1602 5.33203V37.9883C34.1602 38.8077 34.8167 39.4727 35.6289 39.4727H45.9102V57.6562L11.7177 67.7352C11.0905 67.9207 10.6602 68.5011 10.6602 69.1602V81.0352C10.6602 81.6942 11.0905 82.2746 11.7177 82.4602L46.9677 92.8508C47.1028 92.8909 47.2394 92.9102 47.3789 92.9102C47.5184 92.9102 47.655 92.8909 47.7902 92.8508L83.0402 82.4602C83.6673 82.2746 84.0977 81.6942 84.0977 81.0352ZM51.7852 8.91531L55.5833 12.7539H51.7852V8.91531ZM37.0977 6.81641H48.8477V14.2383C48.8477 15.0577 49.5042 15.7227 50.3164 15.7227H57.6602V36.5039H37.0977V6.81641ZM45.9102 60.7482V68.5456L42.5423 65.142L40.4655 67.2409L46.3405 73.1784C46.6269 73.4678 47.0029 73.6133 47.3789 73.6133C47.7549 73.6133 48.1309 73.4678 48.4173 73.1784L54.2923 67.2409L52.2155 65.142L48.8477 68.5456V60.7482L77.384 69.1602L47.3789 78.0041L17.3738 69.1602L45.9102 60.7482ZM13.5977 71.1388L45.9102 80.6641V89.4471L13.5977 79.9219V71.1388ZM48.8477 89.4471V80.6641L81.1602 71.1388V79.9219L48.8477 89.4471Z" fill="#FCDAD8"/>
<path id="Vector_4" d="M40.0352 12.7539H45.9102V15.7227H40.0352V12.7539Z" fill="#FCDAD8"/>
<path id="Vector_5" d="M4.78516 39.4727H15.0664C15.0664 43.5651 18.3608 46.8945 22.4102 46.8945H26.8164C29.2457 46.8945 31.2227 48.8925 31.2227 51.3477V53.7019L27.8548 50.2982L25.778 52.3971L31.653 58.3346C31.9394 58.6241 32.3154 58.7695 32.6914 58.7695C33.0674 58.7695 33.4434 58.6241 33.7298 58.3346L39.6048 52.3971L37.528 50.2982L34.1602 53.7019V51.3477C34.1602 47.2552 30.8658 43.9258 26.8164 43.9258H22.4102C19.9808 43.9258 18.0039 41.9278 18.0039 39.4727H28.2852C29.0974 39.4727 29.7539 38.8077 29.7539 37.9883V14.2383C29.7539 13.8449 29.5997 13.4664 29.3236 13.1888L20.5111 4.28258C20.2364 4.00352 19.8633 3.84766 19.4727 3.84766H4.78516C3.97294 3.84766 3.31641 4.51266 3.31641 5.33203V37.9883C3.31641 38.8077 3.97294 39.4727 4.78516 39.4727ZM20.9414 8.91531L24.7396 12.7539H20.9414V8.91531ZM6.25391 6.81641H18.0039V14.2383C18.0039 15.0577 18.6604 15.7227 19.4727 15.7227H26.8164V36.5039H6.25391V6.81641Z" fill="#FCDAD8"/>
<path id="Vector_6" d="M9.19141 18.6914H23.8789V21.6602H9.19141V18.6914Z" fill="#FCDAD8"/>
<path id="Vector_7" d="M9.19141 24.6289H23.8789V27.5977H9.19141V24.6289Z" fill="#FCDAD8"/>
<path id="Vector_8" d="M9.19141 30.5664H23.8789V33.5352H9.19141V30.5664Z" fill="#FCDAD8"/>
<path id="Vector_9" d="M9.19141 12.7539H15.0664V15.7227H9.19141V12.7539Z" fill="#FCDAD8"/>
<path id="Vector_10" d="M91.4412 37.9883V14.2383C91.4412 13.8449 91.287 13.4664 91.0109 13.1888L82.1984 4.28258C81.9237 4.00352 81.5507 3.84766 81.16 3.84766H66.4725C65.6603 3.84766 65.0037 4.51266 65.0037 5.33203V37.9883C65.0037 38.8077 65.6603 39.4727 66.4725 39.4727H76.7537C76.7537 41.9278 74.7768 43.9258 72.3475 43.9258H67.9412C63.8919 43.9258 60.5975 47.2552 60.5975 51.3477V53.7019L57.2296 50.2982L55.1528 52.3971L61.0278 58.3346C61.3142 58.6241 61.6902 58.7695 62.0662 58.7695C62.4422 58.7695 62.8182 58.6241 63.1046 58.3346L68.9796 52.3971L66.9028 50.2982L63.535 53.7019V51.3477C63.535 48.8925 65.5119 46.8945 67.9412 46.8945H72.3475C76.3968 46.8945 79.6912 43.5651 79.6912 39.4727H89.9725C90.7847 39.4727 91.4412 38.8077 91.4412 37.9883ZM82.6287 8.91531L86.4269 12.7539H82.6287V8.91531ZM67.9412 36.5039V6.81641H79.6912V14.2383C79.6912 15.0577 80.3478 15.7227 81.16 15.7227H88.5037V36.5039H67.9412Z" fill="#FCDAD8"/>
<path id="Vector_11" d="M70.8789 18.6914H85.5664V21.6602H70.8789V18.6914Z" fill="#FCDAD8"/>
<path id="Vector_12" d="M70.8789 24.6289H85.5664V27.5977H70.8789V24.6289Z" fill="#FCDAD8"/>
<path id="Vector_13" d="M70.8789 30.5664H85.5664V33.5352H70.8789V30.5664Z" fill="#FCDAD8"/>
<path id="Vector_14" d="M70.8789 12.7539H76.7539V15.7227H70.8789V12.7539Z" fill="#FCDAD8"/>
<path id="Vector_15" d="M40.0352 30.5664H42.9727V33.5352H40.0352V30.5664Z" fill="#FCDAD8"/>
<path id="Vector_16" d="M45.9102 30.5664H48.8477V33.5352H45.9102V30.5664Z" fill="#FCDAD8"/>
<path id="Vector_17" d="M51.7852 30.5664H54.7227V33.5352H51.7852V30.5664Z" fill="#FCDAD8"/>
</g>
</svg>

<svg xmlns="http://www.w3.org/2000/svg" width="95" height="96" fill="#fcdad8" xmlns:v="https://vecta.io/nano"><path d="M40.035 18.691h14.688v2.969H40.035v-2.969zm0 5.938h14.688v2.969H40.035v-2.969zm44.063 56.406V69.16c0-.659-.43-1.24-1.058-1.425L48.848 57.656V39.473h10.281c.812 0 1.469-.665 1.469-1.484v-23.75a1.49 1.49 0 0 0-.43-1.049l-8.812-8.906c-.275-.279-.648-.435-1.038-.435H35.629c-.812 0-1.469.665-1.469 1.484v32.656c0 .819.656 1.484 1.469 1.484H45.91v18.183L11.718 67.735c-.627.185-1.058.766-1.058 1.425v11.875c0 .659.43 1.239 1.058 1.425l35.25 10.391a1.44 1.44 0 0 0 .411.059 1.44 1.44 0 0 0 .411-.059L83.04 82.46c.627-.186 1.058-.766 1.058-1.425zM51.785 8.915l3.798 3.839h-3.798V8.915zM37.098 6.816h11.75v7.422c0 .819.656 1.484 1.469 1.484h7.344v20.781H37.098V6.816zm8.813 53.932v7.797l-3.368-3.404-2.077 2.099 5.875 5.938c.286.289.662.435 1.038.435s.752-.145 1.038-.435l5.875-5.937-2.077-2.099-3.368 3.404v-7.797l28.536 8.412-30.005 8.844-30.005-8.844 28.536-8.412zM13.598 71.139l32.313 9.525v8.783l-32.312-9.525v-8.783zm35.25 18.308v-8.783l32.313-9.525v8.783l-32.312 9.525zm-8.813-76.693h5.875v2.969h-5.875v-2.969zM4.785 39.473h10.281c0 4.092 3.294 7.422 7.344 7.422h4.406c2.429 0 4.406 1.998 4.406 4.453v2.354l-3.368-3.404-2.077 2.099 5.875 5.938c.286.289.662.435 1.038.435s.752-.145 1.038-.435l5.875-5.937-2.077-2.099-3.368 3.404v-2.354c0-4.093-3.294-7.422-7.344-7.422H22.41c-2.429 0-4.406-1.998-4.406-4.453h10.281c.812 0 1.469-.665 1.469-1.484V14.24a1.49 1.49 0 0 0-.43-1.049l-8.812-8.906c-.275-.279-.648-.435-1.038-.435H4.785c-.812 0-1.469.665-1.469 1.484V37.99c0 .819.657 1.484 1.469 1.484zM20.941 8.915l3.798 3.839h-3.798V8.915zM6.254 6.816h11.75v7.422c0 .819.656 1.484 1.469 1.484h7.344v20.781H6.254V6.816zm2.937 11.875h14.687v2.969H9.191v-2.969zm0 5.938h14.687v2.969H9.191v-2.969zm0 5.937h14.687v2.969H9.191v-2.969zm0-17.812h5.875v2.969H9.191v-2.969zm82.25 25.234v-23.75a1.49 1.49 0 0 0-.43-1.049l-8.812-8.906c-.275-.279-.648-.435-1.038-.435H66.473c-.812 0-1.469.665-1.469 1.484v32.656c0 .819.657 1.484 1.469 1.484h10.281c0 2.455-1.977 4.453-4.406 4.453h-4.406c-4.049 0-7.344 3.329-7.344 7.422v2.354l-3.368-3.404-2.077 2.099 5.875 5.938c.286.289.662.435 1.038.435s.752-.145 1.038-.435l5.875-5.937-2.077-2.099-3.368 3.404v-2.354c0-2.455 1.977-4.453 4.406-4.453h4.406c4.049 0 7.344-3.329 7.344-7.422h10.281c.812 0 1.469-.665 1.469-1.484zM82.629 8.915l3.798 3.839h-3.798V8.915zM67.941 36.504V6.816h11.75v7.422c0 .819.657 1.484 1.469 1.484h7.344v20.781H67.941zm2.938-17.813h14.688v2.969H70.879v-2.969zm0 5.938h14.688v2.969H70.879v-2.969zm0 5.937h14.688v2.969H70.879v-2.969zm0-17.812h5.875v2.969h-5.875v-2.969zM40.035 30.566h2.938v2.969h-2.937v-2.969zm5.875 0h2.938v2.969H45.91v-2.969zm5.875 0h2.938v2.969h-2.937v-2.969z"/></svg>
